X: 10851
M: 6/8
L: 1/8
K: G
ece efg | dBG {B}A2G | GAB cAd | BGG G2 :|
|: c |\
ece efg | dBG {B}A2G | GAB cAd | BGG G2 :|


